explorer/src/assets/logo/header-logo.svg

<svg width="140" height="24" viewBox="0 0 140 24" fill="none" xmlns="http://www.w3.org/2000/svg">
<path d="M3.89205 4.45455L7.40767 15.5057H7.54261L11.0653 4.45455H14.4744L9.46023 19H5.49716L0.475852 4.45455H3.89205ZM19.9094 19.2131C18.7873 19.2131 17.8214 18.9858 17.0117 18.5312C16.2068 18.072 15.5865 17.4233 15.1509 16.5852C14.7153 15.7424 14.4975 14.7457 14.4975 13.5952C14.4975 12.473 14.7153 11.4882 15.1509 10.6406C15.5865 9.79309 16.1997 9.13258 16.9904 8.65909C17.7859 8.18561 18.7186 7.94886 19.7887 7.94886C20.5084 7.94886 21.1784 8.06487 21.7987 8.29688C22.4237 8.52415 22.9682 8.86742 23.4322 9.3267C23.9009 9.78598 24.2655 10.3636 24.5259 11.0597C24.7863 11.7509 24.9165 12.5606 24.9165 13.4886V14.3196H15.7049V12.4446H22.0685C22.0685 12.009 21.9738 11.6231 21.7844 11.2869C21.5951 10.9508 21.3323 10.688 20.9961 10.4986C20.6647 10.3045 20.2788 10.2074 19.8384 10.2074C19.3791 10.2074 18.9719 10.3139 18.6168 10.527C18.2665 10.7353 17.9918 11.017 17.793 11.3722C17.5941 11.7225 17.4923 12.1132 17.4876 12.544V14.3267C17.4876 14.8665 17.587 15.3329 17.7859 15.7259C17.9895 16.1188 18.2759 16.4219 18.6452 16.6349C19.0146 16.848 19.4525 16.9545 19.9592 16.9545C20.2953 16.9545 20.6031 16.9072 20.8825 16.8125C21.1618 16.7178 21.4009 16.5758 21.5998 16.3864C21.7987 16.197 21.9502 15.965 22.0543 15.6903L24.8526 15.875C24.7106 16.5473 24.4194 17.1345 23.979 17.6364C23.5434 18.1335 22.98 18.5218 22.2887 18.8011C21.6022 19.0758 20.8091 19.2131 19.9094 19.2131ZM26.891 19V8.09091H29.8242V9.99432H29.9379C30.1367 9.31723 30.4705 8.80587 30.9393 8.46023C31.408 8.10985 31.9478 7.93466 32.5586 7.93466C32.7101 7.93466 32.8735 7.94413 33.0487 7.96307C33.2238 7.98201 33.3777 8.00805 33.5103 8.04119V10.7259C33.3683 10.6832 33.1718 10.6454 32.9208 10.6122C32.6699 10.5791 32.4402 10.5625 32.2319 10.5625C31.7868 10.5625 31.3891 10.6596 31.0387 10.8537C30.6931 11.0431 30.4184 11.3082 30.2148 11.6491C30.016 11.9901 29.9165 12.383 29.9165 12.8281V19H26.891ZM37.8729 19.206C37.1768 19.206 36.5566 19.0852 36.0121 18.8438C35.4676 18.5975 35.0367 18.2353 34.7195 17.7571C34.407 17.2741 34.2507 16.6728 34.2507 15.9531C34.2507 15.3471 34.362 14.8381 34.5845 14.4261C34.8071 14.0142 35.1101 13.6828 35.4936 13.4318C35.8771 13.1809 36.3127 12.9915 36.8004 12.8636C37.2929 12.7358 37.8089 12.6458 38.3487 12.5938C38.9832 12.5275 39.4946 12.4659 39.8828 12.4091C40.2711 12.3475 40.5528 12.2576 40.728 12.1392C40.9032 12.0208 40.9908 11.8456 40.9908 11.6136V11.571C40.9908 11.1212 40.8487 10.7732 40.5646 10.527C40.2853 10.2808 39.8875 10.1577 39.3714 10.1577C38.8269 10.1577 38.3937 10.2784 38.0717 10.5199C37.7498 10.7566 37.5367 11.0549 37.4325 11.4148L34.6342 11.1875C34.7763 10.5246 35.0556 9.9517 35.4723 9.46875C35.889 8.98106 36.4264 8.60701 37.0845 8.34659C37.7474 8.08144 38.5144 7.94886 39.3857 7.94886C39.9917 7.94886 40.5717 8.01989 41.1257 8.16193C41.6844 8.30398 42.1792 8.52415 42.6101 8.82244C43.0457 9.12074 43.389 9.50426 43.6399 9.97301C43.8909 10.437 44.0163 10.9934 44.0163 11.642V19H41.147V17.4872H41.0618C40.8866 17.8281 40.6522 18.1288 40.3587 18.3892C40.0651 18.6449 39.7124 18.8461 39.3004 18.9929C38.8885 19.1349 38.4126 19.206 37.8729 19.206ZM38.7393 17.1179C39.1844 17.1179 39.5774 17.0303 39.9183 16.8551C40.2592 16.6752 40.5268 16.4337 40.7209 16.1307C40.915 15.8277 41.0121 15.4844 41.0121 15.1009V13.9432C40.9174 14.0047 40.7872 14.0616 40.6214 14.1136C40.4605 14.161 40.2782 14.206 40.0746 14.2486C39.871 14.2865 39.6674 14.322 39.4638 14.3551C39.2602 14.3835 39.0755 14.4096 38.9098 14.4332C38.5547 14.4853 38.2446 14.5682 37.9794 14.6818C37.7143 14.7955 37.5083 14.9493 37.3615 15.1435C37.2147 15.3329 37.1413 15.5696 37.1413 15.8537C37.1413 16.2656 37.2905 16.5805 37.5888 16.7983C37.8918 17.0114 38.2753 17.1179 38.7393 17.1179ZM48.892 8.09091L50.8949 11.9048L52.9474 8.09091H56.0511L52.8906 13.5455L56.1364 19H53.0469L50.8949 15.2287L48.7784 19H45.6534L48.892 13.5455L45.767 8.09091H48.892ZM63.0309 19V4.45455H71.8093V6.01705H64.7923V10.9318H71.3548V12.4943H64.7923V17.4375H71.9229V19H63.0309ZM76.0067 8.09091L78.6204 12.5511L81.234 8.09091H83.1658L79.6431 13.5455L83.1658 19H81.234L78.6204 14.767L76.0067 19H74.0749L77.5408 13.5455L74.0749 8.09091H76.0067ZM85.5575 23.0909V8.09091H87.1768V9.82386H87.3757C87.4988 9.63447 87.6693 9.39299 87.8871 9.09943C88.1096 8.80114 88.4268 8.53598 88.8388 8.30398C89.2554 8.06723 89.8189 7.94886 90.5291 7.94886C91.4477 7.94886 92.2573 8.1785 92.9581 8.63778C93.6589 9.09706 94.2057 9.74811 94.5987 10.5909C94.9917 11.4337 95.1882 12.428 95.1882 13.5739C95.1882 14.7292 94.9917 15.7306 94.5987 16.5781C94.2057 17.4209 93.6612 18.0743 92.9652 18.5384C92.2692 18.9976 91.4666 19.2273 90.5575 19.2273C89.8568 19.2273 89.2957 19.1113 88.8743 18.8793C88.4529 18.6425 88.1286 18.375 87.9013 18.0767C87.674 17.7737 87.4988 17.5227 87.3757 17.3239H87.2337V23.0909H85.5575ZM87.2053 13.5455C87.2053 14.3693 87.326 15.0961 87.5675 15.7259C87.8089 16.3509 88.1617 16.8409 88.6257 17.196C89.0897 17.5464 89.6579 17.7216 90.3303 17.7216C91.031 17.7216 91.6158 17.5369 92.0845 17.1676C92.558 16.7936 92.9131 16.2917 93.1499 15.6619C93.3913 15.0275 93.5121 14.322 93.5121 13.5455C93.5121 12.7784 93.3937 12.0871 93.157 11.4716C92.925 10.8513 92.5722 10.3613 92.0987 10.0014C91.63 9.63684 91.0405 9.45455 90.3303 9.45455C89.6484 9.45455 89.0755 9.62737 88.6115 9.97301C88.1475 10.3139 87.7971 10.7921 87.5604 11.4077C87.3236 12.0185 87.2053 12.7311 87.2053 13.5455ZM99.4212 4.45455V19H97.745V4.45455H99.4212ZM106.923 19.2273C105.938 19.2273 105.074 18.9929 104.331 18.5241C103.592 18.0554 103.014 17.3996 102.598 16.5568C102.186 15.714 101.98 14.7292 101.98 13.6023C101.98 12.4659 102.186 11.474 102.598 10.6264C103.014 9.77888 103.592 9.12074 104.331 8.65199C105.074 8.18324 105.938 7.94886 106.923 7.94886C107.908 7.94886 108.77 8.18324 109.508 8.65199C110.252 9.12074 110.829 9.77888 111.241 10.6264C111.658 11.474 111.866 12.4659 111.866 13.6023C111.866 14.7292 111.658 15.714 111.241 16.5568C110.829 17.3996 110.252 18.0554 109.508 18.5241C108.77 18.9929 107.908 19.2273 106.923 19.2273ZM106.923 17.7216C107.671 17.7216 108.287 17.5298 108.77 17.1463C109.252 16.7628 109.61 16.2585 109.842 15.6335C110.074 15.0085 110.19 14.3314 110.19 13.6023C110.19 12.8731 110.074 12.1937 109.842 11.5639C109.61 10.9342 109.252 10.4252 108.77 10.0369C108.287 9.64867 107.671 9.45455 106.923 9.45455C106.175 9.45455 105.559 9.64867 105.076 10.0369C104.593 10.4252 104.236 10.9342 104.004 11.5639C103.772 12.1937 103.656 12.8731 103.656 13.6023C103.656 14.3314 103.772 15.0085 104.004 15.6335C104.236 16.2585 104.593 16.7628 105.076 17.1463C105.559 17.5298 106.175 17.7216 106.923 17.7216ZM114.425 19V8.09091H116.044V9.73864H116.158C116.357 9.19886 116.716 8.76089 117.237 8.42472C117.758 8.08854 118.345 7.92045 118.999 7.92045C119.122 7.92045 119.276 7.92282 119.46 7.92756C119.645 7.93229 119.785 7.93939 119.879 7.94886V9.65341C119.822 9.6392 119.692 9.6179 119.489 9.58949C119.29 9.55634 119.079 9.53977 118.857 9.53977C118.326 9.53977 117.853 9.65104 117.436 9.87358C117.024 10.0914 116.697 10.3944 116.456 10.7827C116.219 11.1662 116.101 11.6042 116.101 12.0966V19H114.425ZM126.108 19.2273C125.057 19.2273 124.15 18.9953 123.388 18.5312C122.63 18.0625 122.045 17.4091 121.634 16.571C121.226 15.7282 121.023 14.7481 121.023 13.6307C121.023 12.5133 121.226 11.5284 121.634 10.6761C122.045 9.81913 122.618 9.15152 123.352 8.6733C124.091 8.19034 124.953 7.94886 125.938 7.94886C126.506 7.94886 127.067 8.04356 127.621 8.23295C128.175 8.42235 128.679 8.73011 129.134 9.15625C129.588 9.57765 129.95 10.1364 130.22 10.8324C130.49 11.5284 130.625 12.3854 130.625 13.4034V14.1136H122.216V12.6648H128.92C128.92 12.0492 128.797 11.5 128.551 11.017C128.31 10.5341 127.964 10.1529 127.514 9.87358C127.069 9.59422 126.544 9.45455 125.938 9.45455C125.27 9.45455 124.692 9.62026 124.205 9.9517C123.722 10.2784 123.35 10.7045 123.089 11.2301C122.829 11.7557 122.699 12.3191 122.699 12.9205V13.8864C122.699 14.7102 122.841 15.4086 123.125 15.9815C123.414 16.5497 123.814 16.983 124.325 17.2812C124.837 17.5748 125.431 17.7216 126.108 17.7216C126.548 17.7216 126.946 17.66 127.301 17.5369C127.661 17.4091 127.971 17.2197 128.232 16.9688C128.492 16.7131 128.693 16.3958 128.835 16.017L130.455 16.4716C130.284 17.0208 129.998 17.5038 129.595 17.9205C129.193 18.3324 128.696 18.6544 128.104 18.8864C127.512 19.1136 126.847 19.2273 126.108 19.2273ZM133.175 19V8.09091H134.794V9.73864H134.908C135.107 9.19886 135.466 8.76089 135.987 8.42472C136.508 8.08854 137.095 7.92045 137.749 7.92045C137.872 7.92045 138.026 7.92282 138.21 7.92756C138.395 7.93229 138.535 7.93939 138.629 7.94886V9.65341C138.572 9.6392 138.442 9.6179 138.239 9.58949C138.04 9.55634 137.829 9.53977 137.607 9.53977C137.076 9.53977 136.603 9.65104 136.186 9.87358C135.774 10.0914 135.447 10.3944 135.206 10.7827C134.969 11.1662 134.851 11.6042 134.851 12.0966V19H133.175Z" fill="black"/>
</svg>

<svg xmlns="http://www.w3.org/2000/svg" width="140" height="24" fill="none">
  <path fill="#000"
    d="m3.892 4.455 3.516 11.05h.135l3.522-11.05h3.41L9.46 19H5.497L.476 4.455h3.416ZM19.91 19.213c-1.122 0-2.088-.227-2.897-.682a4.669 4.669 0 0 1-1.861-1.946c-.436-.843-.653-1.84-.653-2.99 0-1.122.217-2.107.653-2.954a4.83 4.83 0 0 1 1.84-1.982c.795-.473 1.728-.71 2.798-.71.72 0 1.39.116 2.01.348.625.227 1.17.57 1.633 1.03.469.459.834 1.037 1.094 1.733.26.69.39 1.5.39 2.429v.83h-9.211v-1.874h6.364c0-.436-.095-.822-.285-1.158a2.034 2.034 0 0 0-.788-.788 2.249 2.249 0 0 0-1.158-.292c-.459 0-.866.107-1.221.32a2.24 2.24 0 0 0-.824.845c-.199.35-.3.741-.305 1.172v1.783c0 .54.099 1.006.298 1.399.203.393.49.696.86.909.369.213.806.32 1.313.32.336 0 .644-.048.924-.142.279-.095.518-.237.717-.427.199-.189.35-.421.454-.696l2.799.185a3.82 3.82 0 0 1-.874 1.761c-.436.498-.999.886-1.69 1.165-.687.275-1.48.412-2.38.412ZM26.891 19V8.09h2.933v1.904h.114c.199-.677.533-1.188 1.001-1.534a2.632 2.632 0 0 1 1.62-.525 4.578 4.578 0 0 1 .951.106v2.685a3.945 3.945 0 0 0-.59-.114c-.25-.033-.48-.05-.688-.05a2.42 2.42 0 0 0-1.193.292c-.346.19-.62.454-.824.795a2.297 2.297 0 0 0-.299 1.18V19h-3.025Zm10.982.206c-.696 0-1.316-.12-1.86-.362a2.996 2.996 0 0 1-1.294-1.087c-.312-.483-.468-1.084-.468-1.804 0-.606.111-1.115.334-1.527.222-.412.525-.743.909-.994.383-.251.819-.44 1.306-.568a9.957 9.957 0 0 1 1.549-.27 39.213 39.213 0 0 0 1.534-.185c.388-.062.67-.151.845-.27.175-.118.263-.293.263-.525v-.043c0-.45-.142-.798-.426-1.044-.28-.246-.677-.37-1.194-.37-.544 0-.977.121-1.3.363a1.667 1.667 0 0 0-.639.895l-2.798-.227a3.802 3.802 0 0 1 .838-1.72c.417-.487.954-.861 1.612-1.121.663-.266 1.43-.398 2.302-.398a6.98 6.98 0 0 1 1.74.213 4.553 4.553 0 0 1 1.484.66 3.21 3.21 0 0 1 1.03 1.151c.25.464.376 1.02.376 1.669V19h-2.869v-1.513h-.085a3.08 3.08 0 0 1-.703.902 3.255 3.255 0 0 1-1.059.604c-.411.142-.887.213-1.427.213Zm.866-2.088c.445 0 .838-.088 1.18-.263.34-.18.608-.421.802-.724.194-.303.291-.647.291-1.03v-1.158a1.62 1.62 0 0 1-.39.17c-.161.048-.344.093-.547.136a27.1 27.1 0 0 1-.611.106l-.554.078a3.746 3.746 0 0 0-.93.249 1.488 1.488 0 0 0-.618.461c-.147.19-.22.427-.22.71 0 .413.148.728.447.945.303.213.686.32 1.15.32ZM48.892 8.09l2.003 3.814 2.052-3.814h3.104l-3.16 5.455L56.136 19h-3.09l-2.151-3.771L48.778 19h-3.125l3.239-5.454-3.125-5.455h3.125ZM63.031 19V4.455h8.778v1.562h-7.017v4.915h6.563v1.562h-6.563v4.944h7.13V19h-8.891ZM76.007 8.09l2.613 4.461 2.614-4.46h1.932l-3.523 5.455L83.166 19h-1.932l-2.614-4.233L76.007 19h-1.932l3.466-5.454-3.466-5.455h1.932Zm9.55 15v-15h1.62v1.734h.199c.123-.19.293-.431.511-.725.223-.298.54-.563.952-.795.416-.237.98-.355 1.69-.355.919 0 1.728.23 2.43.689.7.46 1.247 1.11 1.64 1.953.393.843.59 1.837.59 2.983 0 1.155-.197 2.157-.59 3.004-.393.843-.938 1.496-1.634 1.96-.696.46-1.498.69-2.407.69-.701 0-1.262-.117-1.684-.349-.421-.237-.745-.504-.973-.802a10.75 10.75 0 0 1-.525-.753h-.142v5.767h-1.676Zm1.648-9.544c0 .823.121 1.55.362 2.18.242.625.595 1.115 1.059 1.47.464.35 1.032.526 1.704.526.701 0 1.286-.185 1.755-.554.473-.374.828-.876 1.065-1.506.241-.635.362-1.34.362-2.117 0-.767-.118-1.458-.355-2.073-.232-.62-.585-1.11-1.058-1.47-.469-.365-1.059-.547-1.769-.547-.682 0-1.254.172-1.718.518-.465.34-.815.82-1.052 1.435-.236.61-.355 1.323-.355 2.138Zm12.216-9.091V19h-1.676V4.455h1.676Zm7.502 14.772c-.985 0-1.849-.234-2.592-.703-.739-.469-1.317-1.124-1.733-1.967-.412-.843-.618-1.828-.618-2.955 0-1.136.206-2.128.618-2.976.416-.847.994-1.505 1.733-1.974.743-.469 1.607-.703 2.592-.703.985 0 1.847.234 2.585.703.744.469 1.321 1.127 1.733 1.974.417.848.625 1.84.625 2.976 0 1.127-.208 2.112-.625 2.955-.412.843-.989 1.498-1.733 1.967-.738.469-1.6.703-2.585.703Zm0-1.505c.748 0 1.364-.192 1.847-.576.482-.383.84-.887 1.072-1.513a5.792 5.792 0 0 0 .348-2.03c0-.73-.116-1.41-.348-2.04a3.443 3.443 0 0 0-1.072-1.526c-.483-.388-1.099-.582-1.847-.582s-1.364.194-1.847.582c-.483.388-.84.897-1.072 1.527a5.851 5.851 0 0 0-.348 2.038c0 .73.116 1.406.348 2.031.232.626.589 1.13 1.072 1.513.483.384 1.099.576 1.847.576ZM114.425 19V8.09h1.619V9.74h.114c.199-.54.558-.978 1.079-1.314a3.179 3.179 0 0 1 1.762-.505c.123 0 .277.003.461.008.185.004.325.011.419.02v1.705a5.006 5.006 0 0 0-.39-.064 3.848 3.848 0 0 0-.632-.05c-.531 0-1.004.112-1.421.335-.412.217-.739.52-.98.909a2.448 2.448 0 0 0-.355 1.314V19h-1.676Zm11.683.227c-1.051 0-1.958-.232-2.72-.696a4.662 4.662 0 0 1-1.754-1.96c-.408-.843-.611-1.823-.611-2.94 0-1.118.203-2.103.611-2.955.411-.857.984-1.524 1.718-2.003.739-.483 1.601-.724 2.586-.724a5.17 5.17 0 0 1 1.683.284c.554.19 1.058.497 1.513.923.454.422.816.98 1.086 1.676.27.696.405 1.553.405 2.571v.71h-8.409v-1.448h6.704c0-.616-.123-1.165-.369-1.648a2.779 2.779 0 0 0-1.037-1.143c-.445-.28-.97-.42-1.576-.42-.668 0-1.246.166-1.733.498a3.277 3.277 0 0 0-1.116 1.278 3.76 3.76 0 0 0-.39 1.69v.966c0 .824.142 1.523.426 2.096a3.076 3.076 0 0 0 1.2 1.3c.512.293 1.106.44 1.783.44.44 0 .838-.062 1.193-.185.36-.128.67-.317.931-.568.26-.256.461-.573.603-.952l1.62.455a3.593 3.593 0 0 1-.86 1.448 4.182 4.182 0 0 1-1.491.966c-.592.228-1.257.341-1.996.341Zm7.067-.227V8.09h1.619V9.74h.114c.199-.54.558-.978 1.079-1.314a3.179 3.179 0 0 1 1.762-.505c.123 0 .277.003.461.008.185.004.325.011.419.02v1.705a5.006 5.006 0 0 0-.39-.064 3.848 3.848 0 0 0-.632-.05c-.531 0-1.004.112-1.421.335-.412.217-.739.52-.98.909a2.448 2.448 0 0 0-.355 1.314V19h-1.676Z" />
</svg>
